X: 41736
T: Valse Des Bas De Laine
R: waltz
M: 3/4
K: Dmajor
A2 FA dA|f2 d<A d<A|ge cA ce|ef dA FG|
A2 FA d<A|f2 d<A d<A|ge cA Bc|d4:|
G2 GA BG|FA dF dF|E2 cE cE|d2 dF dF|
G2 GA BG|FA dF dF|E2 cE cE|d4:|

